app/assets/images/templates/category.svg

<?xml version="1.0" encoding="UTF-8" standalone="no"?>
<svg
   xmlns:dc="http://purl.org/dc/elements/1.1/"
   xmlns:cc="http://creativecommons.org/ns#"
   xmlns:rdf="http://www.w3.org/1999/02/22-rdf-syntax-ns#"
   xmlns:svg="http://www.w3.org/2000/svg"
   xmlns="http://www.w3.org/2000/svg"
   width="120"
   height="120"
   viewBox="0 0 120 120"
   version="1.1"
   id="svg4">
  <metadata
     id="metadata10">
    <rdf:RDF>
      <cc:Work
         rdf:about="">
        <dc:format>image/svg+xml</dc:format>
        <dc:type
           rdf:resource="http://purl.org/dc/dcmitype/StillImage" />
        <dc:title></dc:title>
      </cc:Work>
    </rdf:RDF>
  </metadata>
  <defs
     id="defs8" />
  <path
     style="stroke-width:1"
     id="path2"
     d="m 39.41176470588237,89.02116401904233 17.6470588235294,-8.82352941176471 V 65.76748754845408 l -17.6470588235294,7.53676470588235 z M 36.47058823529413,68.15719343080702 55.03676470588237,60.20682578374822 36.47058823529413,52.25645813668939 17.90441176470588,60.20682578374822 Z m 50.00000000000002,20.8639705882353 17.64705882352945,-8.82352941176471 V 65.76748754845408 L 86.47058823529411,73.30425225433643 Z M 83.52941176470591,68.15719343080702 102.0955882352942,60.20682578374822 83.52941176470591,52.25645813668939 64.96323529411765,60.20682578374822 Z M 62.94117647058823,54.69211990139529 80.58823529411768,47.10939931315998 V 34.88513460727761 L 62.94117647058823,42.42189931315997 Z M 60.00000000000003,37.27484048963058 80.26654411764707,28.58917872492468 60.00000000000003,19.90351696021879 39.73345588235295,28.58917872492467 Z M 110,61.07998754845408 v 19.11764705882354 q 0,1.65441176470588 -0.8731617647058,3.07904411764704 -0.8731617647059,1.4246323529412 -2.389705882353,2.15992647058825 L 86.14889705882359,95.73072284257175 q -1.14889705882354,0.64338235294116 -2.61948529411765,0.64338235294116 -1.47058823529412,0 -2.61948529411767,-0.64338235294116 L 60.32169117647062,85.43660519551293 q -0.18382352941176,-0.0919117647059 -0.32169117647058,-0.18382352941175 -0.0919117647059,0.0919117647059 -0.32169117647058,0.18382352941175 L 39.09007352941179,95.73072284257175 q -1.14889705882354,0.64338235294116 -2.61948529411766,0.64338235294116 -1.47058823529411,0 -2.61948529411764,-0.64338235294116 L 13.26286764705883,85.43660519551293 Q 11.74632352941177,84.70131107786586 10.87316176470588,83.27667872492467 10,81.85204637198351 10,80.19763460727762 V 61.07998754845408 q 0,-1.74632352941174 0.98805147058824,-3.21691176470587 0.98805147058823,-1.47058823529409 2.59650735294117,-2.20588235294116 L 33.52941176470589,47.10939931315998 V 28.7270463719835 q 0,-1.74632352941175 0.98805147058826,-3.21691176470588 0.98805147058826,-1.47058823529412 2.59650735294121,-2.20588235294117 L 57.702205882353,14.48072284257173 q 1.05698529411763,-0.45955882352942 2.29779411764705,-0.45955882352942 1.24080882352942,0 2.29779411764706,0.45955882352942 l 20.58823529411764,8.82352941176472 q 1.60845588235293,0.73529411764704 2.59650735294116,2.20588235294116 0.98805147058826,1.47058823529413 0.98805147058826,3.21691176470589 v 18.38235294117649 l 19.94485294117642,8.54779411764705 q 1.6544117647059,0.73529411764708 2.6194852941177,2.20588235294116 Q 110,59.33366401904234 110,61.07998754845408 Z" />
</svg>

<svg xmlns="http://www.w3.org/2000/svg" width="120" height="120" viewBox="0 0 120 120"><path d="M39.412 89.021l17.647-8.823v-14.43l-17.647 7.536zM36.47 68.157l18.566-7.95-18.566-7.95-18.567 7.95zm50 20.864l17.647-8.823v-14.43L86.47 73.303zm-2.942-20.864l18.567-7.95-18.567-7.95-18.566 7.95zM62.941 54.692l17.647-7.583V34.885l-17.647 7.537zM60 37.275l20.267-8.686L60 19.904l-20.267 8.685zm50 23.805v19.118q0 1.654-.873 3.079-.873 1.424-2.39 2.16L86.15 95.73q-1.149.643-2.62.643-1.47 0-2.62-.643L60.323 85.437q-.184-.092-.322-.184-.092.092-.322.184L39.09 95.73q-1.149.643-2.62.643-1.47 0-2.619-.643L13.263 85.437q-1.517-.736-2.39-2.16Q10 81.852 10 80.197V61.08q0-1.746.988-3.217.988-1.47 2.597-2.206l19.944-8.548V28.727q0-1.746.988-3.217.989-1.47 2.597-2.206l20.588-8.823q1.057-.46 2.298-.46 1.24 0 2.298.46l20.588 8.823q1.608.736 2.597 2.206.988 1.47.988 3.217v18.382l19.944 8.548q1.655.735 2.62 2.206.965 1.47.965 3.217z"/></svg>
